X:951
T:Head Roaster, The
R:reel
C:Mike Katz
Z:id:hn-reel-951
M:C|
L:1/8
K:Ador
A3B ABe2 | de~e2 fged | eaag ed~d2 | eged BGGB |
A3B BABd | BddB fged | eaag ed~d2 | egdB A2~A2 :|
|: a2ae g2ge | ~e2ge gaag | e2~e2 degd | eged BGGB |
[1 eaae g2ge | ~e2ge gaag | e2~e2 degd | egdB A2~A2 :|
[2 A3B BABd | BddB fged | eaag ed~d2 | egdB A2~A2 :|

